!!!OTL: This Old Man
!!!COM: unknown
!!!ODT: unknown
!!!YOR: The Folksong Fake Book
!!!YOY: 2000
!!!AST: Children's song
!!!YEC: Brian Luke, 2001
**kern	**harm
*k[f#c#]	*k[f#c#]
*M2/4	*M2/4
*D:	*D:
*>A	*>A
=1	=1
8a	I
8f#	.
4a	.
=2	=2
8a	.
8f#	.
4a	.
=3	=3
8b	IV
8a	.
8g	.
8f#	.
=4	=4
8e	V7
8f#	.
8g	.
16f#	.
16g	.
=5	=5
8a	I
8d	.
16d	.
16d	.
8d	.
=6	=6
16d	.
16e	.
16f#	.
16g	.
4a	.
=7	=7
8a	V7
8e	.
8e	.
8g	.
=8	=8
8f#	I;
8e	.
4d	.
*-	*-
